X: 08241
M: 6/8
L: 1/8
K: D
V: 1 clef=treble middle=B
d2d {e}dcd | B2B Bed | cBA ABc | d2f a2A |\
d2d {e}dcd | B2B Bed | cBA ABc | dAF "Fine"D2 H:|
f |\
g2e efe | c2A ABA | a2a aba | f2d d2A |\
{e}dcd {f}ede | {g}fef {a}gfg | aba agf | ([f3d3] [e2c2]) "D.C."A :|
V: 2 clef=bass middle=d
z |:\
dfa dfa | dgb dgb | ega ega | dfa d2z |\
dfa dfa | dgb dgb | ega ega | dfa "D.C."d2 H:|
z |\
cga ega | ega ega | dfa dfa | dfa d2z |\
[d3d'3] [c3c'3] | [=c3=c'3] [B3b3] | fgf fg^g | a^ga A2"D.C"z :|

